src/assets/Money.svg

<svg width="20" height="20" viewBox="0 0 20 20" fill="none" xmlns="http://www.w3.org/2000/svg">
<path d="M19.672 10.6945C19.0413 10.2752 18.2798 10.0992 17.5291 10.1993C16.7784 10.2993 16.0895 10.6685 15.5906 11.2383L13.5906 13.5196C13.4156 13.0396 13.0977 12.6247 12.6798 12.3308C12.2618 12.0369 11.7639 11.8781 11.253 11.8758H10.6717C10.3578 11.8753 10.0511 11.7818 9.79041 11.6071C8.66376 10.8577 7.31257 10.5211 5.96603 10.6544C4.6195 10.7877 3.36052 11.3826 2.40264 12.3384L0.183814 14.5572C0.0661198 14.6749 0 14.8345 0 15.0009C0 15.1674 0.0661198 15.327 0.183814 15.4447C0.301508 15.5624 0.461135 15.6285 0.62758 15.6285C0.794025 15.6285 0.953652 15.5624 1.07135 15.4447L3.29018 13.2259C4.04162 12.4723 5.03138 12.003 6.09039 11.8982C7.14941 11.7933 8.21199 12.0593 9.09664 12.6509C9.56291 12.9619 10.1112 13.1273 10.6717 13.1259H11.253C11.5845 13.1259 11.9025 13.2576 12.1369 13.492C12.3713 13.7264 12.503 14.0444 12.503 14.3759H8.12785C7.96209 14.3759 7.80311 14.4418 7.68589 14.559C7.56868 14.6762 7.50283 14.8352 7.50283 15.0009C7.50283 15.1667 7.56868 15.3257 7.68589 15.4429C7.80311 15.5601 7.96209 15.626 8.12785 15.626H13.128C13.2162 15.6242 13.303 15.6038 13.3827 15.5661C13.4624 15.5284 13.5333 15.4742 13.5906 15.4072L16.5219 12.0571C16.7509 11.7975 17.0473 11.6064 17.3783 11.5049C17.7092 11.4034 18.0618 11.3955 18.397 11.4821L14.0031 17.376C13.8284 17.6089 13.6019 17.7979 13.3416 17.9281C13.0812 18.0583 12.7941 18.1261 12.503 18.1261H7.13407C6.77194 18.1254 6.41327 18.1964 6.07862 18.3347C5.74397 18.4731 5.43995 18.6762 5.184 18.9323C5.12541 18.9904 5.07892 19.0596 5.04718 19.1357C5.01545 19.2119 4.99911 19.2936 4.99911 19.3761C4.99911 19.4586 5.01545 19.5403 5.04718 19.6165C5.07892 19.6926 5.12541 19.7618 5.184 19.8199C5.2421 19.8785 5.31123 19.925 5.38739 19.9567C5.46356 19.9884 5.54525 20.0048 5.62776 20.0048C5.71027 20.0048 5.79197 19.9884 5.86813 19.9567C5.9443 19.925 6.01342 19.8785 6.07153 19.8199C6.21004 19.6787 6.37542 19.5667 6.55791 19.4905C6.7404 19.4143 6.9363 19.3754 7.13407 19.3761H12.503C12.9882 19.3761 13.4667 19.2631 13.9006 19.0462C14.3345 18.8292 14.712 18.5142 15.0031 18.1261L19.8783 11.6258C19.9723 11.4773 20.0059 11.2983 19.972 11.1258C19.9295 10.9496 19.8224 10.7957 19.672 10.6945Z" fill="#2F3A41"/>
<path d="M12.5041 10.0004C13.493 10.0004 14.4598 9.70711 15.282 9.15768C16.1043 8.60826 16.7452 7.82733 17.1237 6.91367C17.5021 6.00001 17.6011 4.99464 17.4082 4.0247C17.2153 3.05476 16.739 2.16381 16.0398 1.46452C15.3405 0.765234 14.4495 0.289012 13.4796 0.0960793C12.5096 -0.0968538 11.5043 0.00216648 10.5906 0.380618C9.67694 0.75907 8.89602 1.39996 8.34659 2.22223C7.79716 3.04451 7.50391 4.01124 7.50391 5.00018C7.50391 6.32631 8.03071 7.59813 8.96843 8.53585C9.90614 9.47356 11.178 10.0004 12.5041 10.0004ZM12.5041 1.25005C13.2458 1.25005 13.9708 1.46999 14.5876 1.88206C15.2043 2.29413 15.6849 2.87982 15.9688 3.56507C16.2526 4.25032 16.3269 5.00434 16.1822 5.7318C16.0375 6.45925 15.6803 7.12746 15.1558 7.65193C14.6314 8.1764 13.9632 8.53356 13.2357 8.67826C12.5082 8.82296 11.7542 8.7487 11.069 8.46486C10.3837 8.18102 9.79803 7.70035 9.38596 7.08365C8.97389 6.46694 8.75395 5.74189 8.75395 5.00018C8.75395 4.00559 9.14905 3.05172 9.85234 2.34844C10.5556 1.64515 11.5095 1.25005 12.5041 1.25005Z" fill="#2F3A41"/>
<path d="M12.0592 7.2116C12.1173 7.27019 12.1864 7.31668 12.2626 7.34842C12.3387 7.38015 12.4204 7.39648 12.5029 7.39648C12.5854 7.39648 12.6671 7.38015 12.7433 7.34842C12.8195 7.31668 12.8886 7.27019 12.9467 7.2116L14.7155 5.44279C14.7741 5.38469 14.8206 5.31556 14.8523 5.23939C14.8841 5.16323 14.9004 5.08153 14.9004 4.99902C14.9004 4.91651 14.8841 4.83482 14.8523 4.75865C14.8206 4.68249 14.7741 4.61336 14.7155 4.55526L12.9467 2.78644C12.8886 2.72786 12.8195 2.68136 12.7433 2.64963C12.6671 2.6179 12.5854 2.60156 12.5029 2.60156C12.4204 2.60156 12.3387 2.6179 12.2626 2.64963C12.1864 2.68136 12.1173 2.72786 12.0592 2.78644L10.2903 4.55526C10.2318 4.61336 10.1853 4.68249 10.1535 4.75865C10.1218 4.83482 10.1055 4.91651 10.1055 4.99902C10.1055 5.08153 10.1218 5.16323 10.1535 5.23939C10.1853 5.31556 10.2318 5.38469 10.2903 5.44279L12.0592 7.2116ZM12.5029 4.11774L13.3842 4.99902L12.5029 5.88031L11.6216 4.99902L12.5029 4.11774Z" fill="#2F3A41"/>
<path d="M3.12893 3.12509H3.75395V3.75011C3.75395 3.91588 3.8198 4.07486 3.93702 4.19207C4.05423 4.30929 4.21321 4.37514 4.37897 4.37514C4.54474 4.37514 4.70372 4.30929 4.82093 4.19207C4.93815 4.07486 5.004 3.91588 5.004 3.75011V3.12509H5.62902C5.79479 3.12509 5.95376 3.05924 6.07098 2.94203C6.18819 2.82481 6.25404 2.66583 6.25404 2.50007C6.25404 2.3343 6.18819 2.17532 6.07098 2.05811C5.95376 1.9409 5.79479 1.87505 5.62902 1.87505H5.004V1.25002C5.004 1.08426 4.93815 0.925279 4.82093 0.808065C4.70372 0.69085 4.54474 0.625 4.37897 0.625C4.21321 0.625 4.05423 0.69085 3.93702 0.808065C3.8198 0.925279 3.75395 1.08426 3.75395 1.25002V1.87505H3.12893C2.96316 1.87505 2.80419 1.9409 2.68697 2.05811C2.56976 2.17532 2.50391 2.3343 2.50391 2.50007C2.50391 2.66583 2.56976 2.82481 2.68697 2.94203C2.80419 3.05924 2.96316 3.12509 3.12893 3.12509Z" fill="#2F3A41"/>
</svg>

<svg xmlns="http://www.w3.org/2000/svg" width="20" height="20" fill="none" viewBox="0 0 20 20"><path fill="#2f3a41" d="M19.672 10.695a3.125 3.125 0 0 0-4.081.543l-2 2.282a2.5 2.5 0 0 0-2.338-1.644h-.581c-.314 0-.62-.094-.882-.269a5.86 5.86 0 0 0-7.387.731l-2.22 2.22a.628.628 0 1 0 .888.887l2.22-2.22a4.59 4.59 0 0 1 5.806-.574 2.83 2.83 0 0 0 1.575.475h.581a1.25 1.25 0 0 1 1.25 1.25H8.128a.625.625 0 0 0 0 1.25h5a.63.63 0 0 0 .463-.219l2.93-3.35a1.88 1.88 0 0 1 1.876-.575l-4.394 5.894a1.88 1.88 0 0 1-1.5.75H7.134a2.75 2.75 0 0 0-1.95.806.626.626 0 0 0 .203 1.025.63.63 0 0 0 .685-.137 1.48 1.48 0 0 1 1.062-.444h5.369a3.13 3.13 0 0 0 2.5-1.25l4.875-6.5a.7.7 0 0 0 .094-.5.73.73 0 0 0-.3-.431M12.504 10a5 5 0 1 0 0-10 5 5 0 0 0 0 10m0-8.75a3.75 3.75 0 1 1 0 7.501 3.75 3.75 0 0 1 0-7.5"/><path fill="#2f3a41" d="M12.06 7.212a.625.625 0 0 0 .887 0l1.769-1.77a.624.624 0 0 0 0-.887l-1.77-1.769a.625.625 0 0 0-.887 0l-1.769 1.77a.627.627 0 0 0 0 .887zm.443-3.094.881.881-.881.881L11.622 5zM3.129 3.125h.625v.625a.625.625 0 1 0 1.25 0v-.625h.625a.625.625 0 0 0 0-1.25h-.625V1.25a.625.625 0 0 0-1.25 0v.625h-.625a.625.625 0 0 0 0 1.25"/></svg>
